images/50384154.svg

<?xml version="1.0" encoding="UTF-8"?>
<svg xmlns="http://www.w3.org/2000/svg" xmlns:xlink="http://www.w3.org/1999/xlink" width="300pt" height="300pt" viewBox="0 0 300 300" version="1.1">
<defs>
<g>
<symbol overflow="visible" id="glyph0-0">
<path style="stroke:none;" d="M 0.59375 2.125 L 0.59375 -8.46875 L 6.59375 -8.46875 L 6.59375 2.125 Z M 1.265625 1.453125 L 5.9375 1.453125 L 5.9375 -7.78125 L 1.265625 -7.78125 Z M 1.265625 1.453125 "/>
</symbol>
<symbol overflow="visible" id="glyph0-1">
<path style="stroke:none;" d="M 7.734375 -8.078125 L 7.734375 -6.828125 C 7.328125 -7.203125 6.898438 -7.476562 6.453125 -7.65625 C 6.003906 -7.84375 5.523438 -7.9375 5.015625 -7.9375 C 4.015625 -7.9375 3.25 -7.628906 2.71875 -7.015625 C 2.1875 -6.398438 1.921875 -5.515625 1.921875 -4.359375 C 1.921875 -3.210938 2.1875 -2.332031 2.71875 -1.71875 C 3.25 -1.101562 4.015625 -0.796875 5.015625 -0.796875 C 5.523438 -0.796875 6.003906 -0.890625 6.453125 -1.078125 C 6.898438 -1.265625 7.328125 -1.539062 7.734375 -1.90625 L 7.734375 -0.671875 C 7.316406 -0.390625 6.875 -0.175781 6.40625 -0.03125 C 5.945312 0.101562 5.460938 0.171875 4.953125 0.171875 C 3.617188 0.171875 2.570312 -0.234375 1.8125 -1.046875 C 1.050781 -1.859375 0.671875 -2.960938 0.671875 -4.359375 C 0.671875 -5.765625 1.050781 -6.875 1.8125 -7.6875 C 2.570312 -8.5 3.617188 -8.90625 4.953125 -8.90625 C 5.472656 -8.90625 5.960938 -8.832031 6.421875 -8.6875 C 6.890625 -8.550781 7.328125 -8.347656 7.734375 -8.078125 Z M 7.734375 -8.078125 "/>
</symbol>
<symbol overflow="visible" id="glyph0-2">
<path style="stroke:none;" d="M 1.125 -9.125 L 2.203125 -9.125 L 2.203125 0 L 1.125 0 Z M 1.125 -9.125 "/>
</symbol>
<symbol overflow="visible" id="glyph0-3">
<path style="stroke:none;" d="M 1.171875 -8.75 L 2.765625 -8.75 L 6.65625 -1.4375 L 6.65625 -8.75 L 7.796875 -8.75 L 7.796875 0 L 6.203125 0 L 2.328125 -7.3125 L 2.328125 0 L 1.171875 0 Z M 1.171875 -8.75 "/>
</symbol>
<symbol overflow="visible" id="glyph0-4">
<path style="stroke:none;" d="M 1.171875 -8.75 L 2.359375 -8.75 L 2.359375 -5.15625 L 6.65625 -5.15625 L 6.65625 -8.75 L 7.84375 -8.75 L 7.84375 0 L 6.65625 0 L 6.65625 -4.171875 L 2.359375 -4.171875 L 2.359375 0 L 1.171875 0 Z M 1.171875 -8.75 "/>
</symbol>
<symbol overflow="visible" id="glyph0-5">
<path style="stroke:none;" d="M 4.734375 -7.953125 C 3.867188 -7.953125 3.179688 -7.628906 2.671875 -6.984375 C 2.171875 -6.347656 1.921875 -5.472656 1.921875 -4.359375 C 1.921875 -3.265625 2.171875 -2.394531 2.671875 -1.75 C 3.179688 -1.113281 3.867188 -0.796875 4.734375 -0.796875 C 5.585938 -0.796875 6.265625 -1.113281 6.765625 -1.75 C 7.273438 -2.394531 7.53125 -3.265625 7.53125 -4.359375 C 7.53125 -5.472656 7.273438 -6.347656 6.765625 -6.984375 C 6.265625 -7.628906 5.585938 -7.953125 4.734375 -7.953125 Z M 4.734375 -8.90625 C 5.953125 -8.90625 6.925781 -8.492188 7.65625 -7.671875 C 8.394531 -6.847656 8.765625 -5.742188 8.765625 -4.359375 C 8.765625 -2.984375 8.394531 -1.882812 7.65625 -1.0625 C 6.925781 -0.238281 5.953125 0.171875 4.734375 0.171875 C 3.503906 0.171875 2.519531 -0.238281 1.78125 -1.0625 C 1.039062 -1.882812 0.671875 -2.984375 0.671875 -4.359375 C 0.671875 -5.742188 1.039062 -6.847656 1.78125 -7.671875 C 2.519531 -8.492188 3.503906 -8.90625 4.734375 -8.90625 Z M 4.734375 -8.90625 "/>
</symbol>
</g>
</defs>
<g id="surface9345">
<rect x="0" y="0" width="300" height="300" style="fill:rgb(100%,100%,100%);fill-opacity:1;stroke:none;"/>
<path style="fill:none;stroke-width:1.2;stroke-linecap:butt;stroke-linejoin:miter;stroke:rgb(0%,80%,0%);stroke-opacity:1;stroke-miterlimit:10;" d="M 35.25 132.355469 L 47.886719 124.890625 "/>
<path style="fill:none;stroke-width:1.2;stroke-linecap:butt;stroke-linejoin:miter;stroke:rgb(0%,0%,0%);stroke-opacity:1;stroke-miterlimit:10;" d="M 47.886719 124.890625 L 60.527344 117.425781 "/>
<path style=" stroke:none;fill-rule:nonzero;fill:rgb(100%,100%,100%);fill-opacity:1;" d="M 23.25 125.355469 L 35.25 125.355469 L 35.25 139.355469 L 23.25 139.355469 Z M 23.25 125.355469 "/>
<g style="fill:rgb(0%,80%,0%);fill-opacity:1;">
  <use xlink:href="#glyph0-1" x="23.25" y="136.494141"/>
  <use xlink:href="#glyph0-2" x="31.628906" y="136.494141"/>
</g>
<path style="fill:none;stroke-width:1.2;stroke-linecap:butt;stroke-linejoin:miter;stroke:rgb(0%,0%,0%);stroke-opacity:1;stroke-miterlimit:10;" d="M 60.527344 117.425781 L 60.238281 88.074219 "/>
<path style="fill:none;stroke-width:1.2;stroke-linecap:butt;stroke-linejoin:miter;stroke:rgb(0%,0%,0%);stroke-opacity:1;stroke-miterlimit:10;" d="M 67.402344 114.425781 L 67.171875 90.941406 "/>
<path style="fill:none;stroke-width:1.2;stroke-linecap:butt;stroke-linejoin:miter;stroke:rgb(0%,0%,0%);stroke-opacity:1;stroke-miterlimit:10;" d="M 86.089844 131.855469 L 60.527344 117.425781 "/>
<path style="fill:none;stroke-width:1.2;stroke-linecap:butt;stroke-linejoin:miter;stroke:rgb(0%,0%,0%);stroke-opacity:1;stroke-miterlimit:10;" d="M 60.238281 88.074219 L 72.875 80.613281 "/>
<path style="fill:none;stroke-width:1.2;stroke-linecap:butt;stroke-linejoin:miter;stroke:rgb(0%,0%,100%);stroke-opacity:1;stroke-miterlimit:10;" d="M 72.875 80.613281 L 85.511719 73.148438 "/>
<path style="fill:none;stroke-width:1.2;stroke-linecap:butt;stroke-linejoin:miter;stroke:rgb(0%,0%,100%);stroke-opacity:1;stroke-miterlimit:10;" d="M 85.511719 73.148438 L 98.292969 80.363281 "/>
<path style="fill:none;stroke-width:1.2;stroke-linecap:butt;stroke-linejoin:miter;stroke:rgb(0%,0%,0%);stroke-opacity:1;stroke-miterlimit:10;" d="M 98.292969 80.363281 L 111.078125 87.574219 "/>
<path style="fill:none;stroke-width:1.2;stroke-linecap:butt;stroke-linejoin:miter;stroke:rgb(0%,0%,100%);stroke-opacity:1;stroke-miterlimit:10;" d="M 84.675781 80.605469 L 94.898438 86.378906 "/>
<path style="fill:none;stroke-width:1.2;stroke-linecap:butt;stroke-linejoin:miter;stroke:rgb(0%,0%,0%);stroke-opacity:1;stroke-miterlimit:10;" d="M 94.898438 86.378906 L 105.125 92.148438 "/>
<path style=" stroke:none;fill-rule:nonzero;fill:rgb(100%,100%,100%);fill-opacity:1;" d="M 81.511719 66.148438 L 90.511719 66.148438 L 90.511719 80.148438 L 81.511719 80.148438 Z M 81.511719 66.148438 "/>
<g style="fill:rgb(0%,0%,100%);fill-opacity:1;">
  <use xlink:href="#glyph0-3" x="81.511719" y="77.287109"/>
</g>
<path style="fill:none;stroke-width:1.2;stroke-linecap:butt;stroke-linejoin:miter;stroke:rgb(0%,0%,0%);stroke-opacity:1;stroke-miterlimit:10;" d="M 111.078125 87.574219 L 111.222656 102.25 "/>
<path style="fill:none;stroke-width:1.2;stroke-linecap:butt;stroke-linejoin:miter;stroke:rgb(0%,0%,100%);stroke-opacity:1;stroke-miterlimit:10;" d="M 111.222656 102.25 L 111.367188 116.929688 "/>
<path style="fill:none;stroke-width:1.2;stroke-linecap:butt;stroke-linejoin:miter;stroke:rgb(0%,0%,0%);stroke-opacity:1;stroke-miterlimit:10;" d="M 111.078125 87.574219 L 123.714844 80.113281 "/>
<path style="fill:none;stroke-width:1.2;stroke-linecap:butt;stroke-linejoin:miter;stroke:rgb(0%,0%,100%);stroke-opacity:1;stroke-miterlimit:10;" d="M 123.714844 80.113281 L 136.351562 72.648438 "/>
<path style="fill:none;stroke-width:1.2;stroke-linecap:butt;stroke-linejoin:miter;stroke:rgb(0%,0%,100%);stroke-opacity:1;stroke-miterlimit:10;" d="M 111.367188 116.929688 L 98.726562 124.390625 "/>
<path style="fill:none;stroke-width:1.2;stroke-linecap:butt;stroke-linejoin:miter;stroke:rgb(0%,0%,0%);stroke-opacity:1;stroke-miterlimit:10;" d="M 98.726562 124.390625 L 86.089844 131.855469 "/>
<path style="fill:none;stroke-width:1.2;stroke-linecap:butt;stroke-linejoin:miter;stroke:rgb(0%,0%,100%);stroke-opacity:1;stroke-miterlimit:10;" d="M 105.324219 112.472656 L 95.214844 118.445312 "/>
<path style="fill:none;stroke-width:1.2;stroke-linecap:butt;stroke-linejoin:miter;stroke:rgb(0%,0%,0%);stroke-opacity:1;stroke-miterlimit:10;" d="M 95.214844 118.445312 L 85.105469 124.414062 "/>
<path style=" stroke:none;fill-rule:nonzero;fill:rgb(100%,100%,100%);fill-opacity:1;" d="M 107.367188 109.929688 L 116.367188 109.929688 L 116.367188 123.929688 L 107.367188 123.929688 Z M 107.367188 109.929688 "/>
<g style="fill:rgb(0%,0%,100%);fill-opacity:1;">
  <use xlink:href="#glyph0-3" x="107.367188" y="121.068359"/>
</g>
<path style="fill:none;stroke-width:1.2;stroke-linecap:butt;stroke-linejoin:miter;stroke:rgb(0%,0%,0%);stroke-opacity:1;stroke-miterlimit:10;" d="M 86.089844 131.855469 L 86.378906 161.207031 "/>
<path style="fill:none;stroke-width:1.2;stroke-linecap:butt;stroke-linejoin:miter;stroke:rgb(0%,0%,0%);stroke-opacity:1;stroke-miterlimit:10;" d="M 86.378906 161.207031 L 110.292969 178.226562 "/>
<path style="fill:none;stroke-width:1.2;stroke-linecap:butt;stroke-linejoin:miter;stroke:rgb(0%,0%,0%);stroke-opacity:1;stroke-miterlimit:10;" d="M 62.800781 178.691406 L 86.378906 161.207031 "/>
<path style="fill:none;stroke-width:1.2;stroke-linecap:butt;stroke-linejoin:miter;stroke:rgb(0%,0%,0%);stroke-opacity:1;stroke-miterlimit:10;" d="M 69.273438 182.492188 L 88.136719 168.503906 "/>
<path style="fill:none;stroke-width:1.2;stroke-linecap:butt;stroke-linejoin:miter;stroke:rgb(0%,0%,0%);stroke-opacity:1;stroke-miterlimit:10;" d="M 110.292969 178.226562 L 101.5 206.230469 "/>
<path style="fill:none;stroke-width:1.2;stroke-linecap:butt;stroke-linejoin:miter;stroke:rgb(0%,0%,0%);stroke-opacity:1;stroke-miterlimit:10;" d="M 116.003906 183.09375 L 108.96875 205.5 "/>
<path style="fill:none;stroke-width:1.2;stroke-linecap:butt;stroke-linejoin:miter;stroke:rgb(0%,0%,0%);stroke-opacity:1;stroke-miterlimit:10;" d="M 138.945312 171.839844 L 110.292969 178.226562 "/>
<path style="fill:none;stroke-width:1.2;stroke-linecap:butt;stroke-linejoin:miter;stroke:rgb(0%,0%,0%);stroke-opacity:1;stroke-miterlimit:10;" d="M 101.5 206.230469 L 86.820312 206.375 "/>
<path style="fill:none;stroke-width:1.2;stroke-linecap:butt;stroke-linejoin:miter;stroke:rgb(0%,0%,100%);stroke-opacity:1;stroke-miterlimit:10;" d="M 86.820312 206.375 L 72.144531 206.519531 "/>
<path style="fill:none;stroke-width:1.2;stroke-linecap:butt;stroke-linejoin:miter;stroke:rgb(0%,0%,0%);stroke-opacity:1;stroke-miterlimit:10;" d="M 101.5 206.230469 L 121.351562 227.851562 "/>
<path style="fill:none;stroke-width:1.2;stroke-linecap:butt;stroke-linejoin:miter;stroke:rgb(0%,0%,100%);stroke-opacity:1;stroke-miterlimit:10;" d="M 72.144531 206.519531 L 67.472656 192.605469 "/>
<path style="fill:none;stroke-width:1.2;stroke-linecap:butt;stroke-linejoin:miter;stroke:rgb(0%,0%,0%);stroke-opacity:1;stroke-miterlimit:10;" d="M 67.472656 192.605469 L 62.800781 178.691406 "/>
<path style=" stroke:none;fill-rule:nonzero;fill:rgb(100%,100%,100%);fill-opacity:1;" d="M 63.144531 199.519531 L 81.144531 199.519531 L 81.144531 213.519531 L 63.144531 213.519531 Z M 63.144531 199.519531 "/>
<g style="fill:rgb(0%,0%,100%);fill-opacity:1;">
  <use xlink:href="#glyph0-3" x="63.144531" y="210.658203"/>
  <use xlink:href="#glyph0-4" x="72.121094" y="210.658203"/>
</g>
<path style="fill:none;stroke-width:1.2;stroke-linecap:butt;stroke-linejoin:miter;stroke:rgb(0%,0%,0%);stroke-opacity:1;stroke-miterlimit:10;" d="M 121.351562 227.851562 L 150.003906 221.464844 "/>
<path style="fill:none;stroke-width:1.2;stroke-linecap:butt;stroke-linejoin:miter;stroke:rgb(0%,0%,0%);stroke-opacity:1;stroke-miterlimit:10;" d="M 122.714844 220.46875 L 145.636719 215.363281 "/>
<path style="fill:none;stroke-width:1.2;stroke-linecap:butt;stroke-linejoin:miter;stroke:rgb(0%,0%,0%);stroke-opacity:1;stroke-miterlimit:10;" d="M 150.003906 221.464844 L 158.800781 193.460938 "/>
<path style="fill:none;stroke-width:1.2;stroke-linecap:butt;stroke-linejoin:miter;stroke:rgb(0%,0%,0%);stroke-opacity:1;stroke-miterlimit:10;" d="M 158.800781 193.460938 L 138.945312 171.839844 "/>
<path style="fill:none;stroke-width:1.2;stroke-linecap:butt;stroke-linejoin:miter;stroke:rgb(0%,0%,0%);stroke-opacity:1;stroke-miterlimit:10;" d="M 151.726562 195.96875 L 135.84375 178.675781 "/>
<path style="fill:none;stroke-width:1.2;stroke-linecap:butt;stroke-linejoin:miter;stroke:rgb(0%,0%,100%);stroke-opacity:1;stroke-miterlimit:10;" d="M 136.351562 72.648438 L 149.132812 79.863281 "/>
<path style="fill:none;stroke-width:1.2;stroke-linecap:butt;stroke-linejoin:miter;stroke:rgb(0%,0%,0%);stroke-opacity:1;stroke-miterlimit:10;" d="M 149.132812 79.863281 L 161.917969 87.074219 "/>
<path style=" stroke:none;fill-rule:nonzero;fill:rgb(100%,100%,100%);fill-opacity:1;" d="M 127.351562 65.648438 L 145.351562 65.648438 L 145.351562 79.648438 L 127.351562 79.648438 Z M 127.351562 65.648438 "/>
<g style="fill:rgb(0%,0%,100%);fill-opacity:1;">
  <use xlink:href="#glyph0-3" x="127.351562" y="76.787109"/>
  <use xlink:href="#glyph0-4" x="136.328125" y="76.787109"/>
</g>
<path style="fill:none;stroke-width:1.2;stroke-linecap:butt;stroke-linejoin:miter;stroke:rgb(0%,0%,0%);stroke-opacity:1;stroke-miterlimit:10;" d="M 161.917969 87.074219 L 162.203125 116.429688 "/>
<path style="fill:none;stroke-width:1.2;stroke-linecap:butt;stroke-linejoin:miter;stroke:rgb(0%,0%,0%);stroke-opacity:1;stroke-miterlimit:10;" d="M 187.191406 72.148438 L 161.917969 87.074219 "/>
<path style="fill:none;stroke-width:1.2;stroke-linecap:butt;stroke-linejoin:miter;stroke:rgb(0%,0%,0%);stroke-opacity:1;stroke-miterlimit:10;" d="M 162.203125 116.429688 L 187.769531 130.855469 "/>
<path style="fill:none;stroke-width:1.2;stroke-linecap:butt;stroke-linejoin:miter;stroke:rgb(0%,0%,0%);stroke-opacity:1;stroke-miterlimit:10;" d="M 187.769531 130.855469 L 200.40625 123.390625 "/>
<path style="fill:none;stroke-width:1.2;stroke-linecap:butt;stroke-linejoin:miter;stroke:rgb(0%,0%,100%);stroke-opacity:1;stroke-miterlimit:10;" d="M 200.40625 123.390625 L 213.042969 115.929688 "/>
<path style="fill:none;stroke-width:1.2;stroke-linecap:butt;stroke-linejoin:miter;stroke:rgb(0%,0%,100%);stroke-opacity:1;stroke-miterlimit:10;" d="M 213.042969 115.929688 L 212.902344 101.253906 "/>
<path style="fill:none;stroke-width:1.2;stroke-linecap:butt;stroke-linejoin:miter;stroke:rgb(0%,0%,0%);stroke-opacity:1;stroke-miterlimit:10;" d="M 212.902344 101.253906 L 212.757812 86.574219 "/>
<path style="fill:none;stroke-width:1.2;stroke-linecap:butt;stroke-linejoin:miter;stroke:rgb(0%,0%,100%);stroke-opacity:1;stroke-miterlimit:10;" d="M 213.042969 115.929688 L 225.828125 123.140625 "/>
<path style="fill:none;stroke-width:1.2;stroke-linecap:butt;stroke-linejoin:miter;stroke:rgb(0%,0%,0%);stroke-opacity:1;stroke-miterlimit:10;" d="M 225.828125 123.140625 L 238.609375 130.355469 "/>
<path style=" stroke:none;fill-rule:nonzero;fill:rgb(100%,100%,100%);fill-opacity:1;" d="M 209.042969 108.929688 L 218.042969 108.929688 L 218.042969 122.929688 L 209.042969 122.929688 Z M 209.042969 108.929688 "/>
<g style="fill:rgb(0%,0%,100%);fill-opacity:1;">
  <use xlink:href="#glyph0-3" x="209.042969" y="120.068359"/>
</g>
<path style="fill:none;stroke-width:1.2;stroke-linecap:butt;stroke-linejoin:miter;stroke:rgb(0%,0%,0%);stroke-opacity:1;stroke-miterlimit:10;" d="M 212.757812 86.574219 L 187.191406 72.148438 "/>
<path style="fill:none;stroke-width:1.2;stroke-linecap:butt;stroke-linejoin:miter;stroke:rgb(0%,0%,0%);stroke-opacity:1;stroke-miterlimit:10;" d="M 240.363281 133.328125 L 253.003906 125.863281 "/>
<path style="fill:none;stroke-width:1.2;stroke-linecap:butt;stroke-linejoin:miter;stroke:rgb(100%,0%,0%);stroke-opacity:1;stroke-miterlimit:10;" d="M 253.003906 125.863281 L 265.640625 118.402344 "/>
<path style="fill:none;stroke-width:1.2;stroke-linecap:butt;stroke-linejoin:miter;stroke:rgb(0%,0%,0%);stroke-opacity:1;stroke-miterlimit:10;" d="M 236.851562 127.382812 L 249.492188 119.917969 "/>
<path style="fill:none;stroke-width:1.2;stroke-linecap:butt;stroke-linejoin:miter;stroke:rgb(100%,0%,0%);stroke-opacity:1;stroke-miterlimit:10;" d="M 249.492188 119.917969 L 262.128906 112.453125 "/>
<path style="fill:none;stroke-width:1.2;stroke-linecap:butt;stroke-linejoin:miter;stroke:rgb(0%,0%,0%);stroke-opacity:1;stroke-miterlimit:10;" d="M 238.609375 130.355469 L 238.753906 145.03125 "/>
<path style="fill:none;stroke-width:1.2;stroke-linecap:butt;stroke-linejoin:miter;stroke:rgb(0%,0%,100%);stroke-opacity:1;stroke-miterlimit:10;" d="M 238.753906 145.03125 L 238.898438 159.707031 "/>
<path style=" stroke:none;fill-rule:nonzero;fill:rgb(100%,100%,100%);fill-opacity:1;" d="M 258.882812 108.429688 L 268.882812 108.429688 L 268.882812 122.429688 L 258.882812 122.429688 Z M 258.882812 108.429688 "/>
<g style="fill:rgb(100%,0%,0%);fill-opacity:1;">
  <use xlink:href="#glyph0-5" x="258.882812" y="119.568359"/>
</g>
<path style="fill:none;stroke-width:1.2;stroke-linecap:butt;stroke-linejoin:miter;stroke:rgb(0%,0%,100%);stroke-opacity:1;stroke-miterlimit:10;" d="M 238.898438 159.707031 L 251.679688 166.921875 "/>
<path style="fill:none;stroke-width:1.2;stroke-linecap:butt;stroke-linejoin:miter;stroke:rgb(0%,0%,0%);stroke-opacity:1;stroke-miterlimit:10;" d="M 251.679688 166.921875 L 264.460938 174.132812 "/>
<path style=" stroke:none;fill-rule:nonzero;fill:rgb(100%,100%,100%);fill-opacity:1;" d="M 229.898438 152.707031 L 247.898438 152.707031 L 247.898438 166.707031 L 229.898438 166.707031 Z M 229.898438 152.707031 "/>
<g style="fill:rgb(0%,0%,100%);fill-opacity:1;">
  <use xlink:href="#glyph0-3" x="229.898438" y="163.845703"/>
  <use xlink:href="#glyph0-4" x="238.875" y="163.845703"/>
</g>
<path style="fill:none;stroke-width:1.2;stroke-linecap:butt;stroke-linejoin:miter;stroke:rgb(0%,0%,0%);stroke-opacity:1;stroke-miterlimit:10;" d="M 264.460938 174.132812 L 264.75 203.484375 "/>
</g>
</svg>

<svg xmlns="http://www.w3.org/2000/svg" xmlns:xlink="http://www.w3.org/1999/xlink" width="300pt" height="300pt" viewBox="0 0 300 300"><defs><symbol overflow="visible"><path d="M.594 2.125V-8.47h6V2.126zm.672-.672h4.671V-7.78h-4.67zm0 0"/></symbol><symbol overflow="visible" id="a"><path d="M7.734-8.078v1.25c-.406-.375-.836-.65-1.28-.828-.45-.188-.93-.282-1.438-.282-1 0-1.766.31-2.297.922-.533.618-.798 1.5-.798 2.657 0 1.15.266 2.028.797 2.64.53.618 1.296.923 2.296.923.507 0 .988-.094 1.437-.28.445-.19.875-.462 1.28-.83V-.67c-.417.28-.858.496-1.327.64-.46.134-.945.204-1.453.204-1.336 0-2.383-.406-3.14-1.22-.762-.81-1.14-1.913-1.14-3.31 0-1.408.378-2.517 1.14-3.33.757-.812 1.804-1.218 3.14-1.218.52 0 1.008.074 1.47.22.468.135.905.338 1.31.608zm0 0"/></symbol><symbol overflow="visible" id="b"><path d="M1.125-9.125h1.078V0H1.125zm0 0"/></symbol><symbol overflow="visible" id="c"><path d="M1.172-8.75h1.594l3.89 7.313V-8.75h1.14V0H6.204L2.328-7.313V0H1.172zm0 0"/></symbol><symbol overflow="visible" id="d"><path d="M1.172-8.75H2.36v3.594h4.296V-8.75h1.188V0H6.656v-4.172H2.36V0H1.17zm0 0"/></symbol><symbol overflow="visible" id="e"><path d="M4.734-7.953c-.867 0-1.554.324-2.062.97-.5.635-.75 1.51-.75 2.624 0 1.094.25 1.965.75 2.61.508.637 1.195.953 2.062.953.852 0 1.532-.316 2.032-.953.507-.645.765-1.516.765-2.61 0-1.113-.257-1.988-.764-2.624-.5-.645-1.18-.97-2.032-.97zm0-.953c1.22 0 2.192.414 2.922 1.234.74.824 1.11 1.93 1.11 3.313 0 1.376-.37 2.477-1.11 3.298C6.926-.24 5.953.17 4.734.17c-1.23 0-2.214-.41-2.953-1.234C1.04-1.882.673-2.984.673-4.36c0-1.382.367-2.488 1.11-3.312.738-.82 1.722-1.234 2.952-1.234zm0 0"/></symbol></defs><g><path fill="#fff" d="M0 0h300v300H0z"/><path d="M35.25 132.355l12.637-7.464" stroke-width="1.2" stroke="#0c0" stroke-miterlimit="10" fill="none"/><path d="M47.887 124.89l12.64-7.464" stroke-width="1.2" stroke="#000" stroke-miterlimit="10" fill="none"/><path d="M23.25 125.355h12v14h-12zm0 0" fill="#fff"/><g fill="#0c0"><use xlink:href="#a" x="23.25" y="136.494"/><use xlink:href="#b" x="31.629" y="136.494"/></g><path d="M60.527 117.426l-.29-29.352M67.402 114.426l-.23-23.485M86.09 131.855l-25.563-14.43M60.238 88.074l12.637-7.46" stroke-width="1.2" stroke="#000" stroke-miterlimit="10" fill="none"/><path d="M72.875 80.613l12.637-7.465M85.512 73.148l12.78 7.215" stroke-width="1.2" stroke="#00f" stroke-miterlimit="10" fill="none"/><path d="M98.293 80.363l12.785 7.21" stroke-width="1.2" stroke="#000" stroke-miterlimit="10" fill="none"/><path d="M84.676 80.605l10.222 5.774" stroke-width="1.2" stroke="#00f" stroke-miterlimit="10" fill="none"/><path d="M94.898 86.38l10.227 5.768" stroke-width="1.2" stroke="#000" stroke-miterlimit="10" fill="none"/><path d="M81.512 66.148h9v14h-9zm0 0" fill="#fff"/><use xlink:href="#c" x="81.512" y="77.287" fill="#00f"/><path d="M111.078 87.574l.145 14.676" stroke-width="1.2" stroke="#000" stroke-miterlimit="10" fill="none"/><path d="M111.223 102.25l.144 14.68" stroke-width="1.2" stroke="#00f" stroke-miterlimit="10" fill="none"/><path d="M111.078 87.574l12.637-7.46" stroke-width="1.2" stroke="#000" stroke-miterlimit="10" fill="none"/><path d="M123.715 80.113l12.637-7.465M111.367 116.93l-12.64 7.46" stroke-width="1.2" stroke="#00f" stroke-miterlimit="10" fill="none"/><path d="M98.727 124.39l-12.637 7.465" stroke-width="1.2" stroke="#000" stroke-miterlimit="10" fill="none"/><path d="M105.324 112.473l-10.11 5.972" stroke-width="1.2" stroke="#00f" stroke-miterlimit="10" fill="none"/><path d="M95.215 118.445l-10.11 5.97" stroke-width="1.2" stroke="#000" stroke-miterlimit="10" fill="none"/><path d="M107.367 109.93h9v14h-9zm0 0" fill="#fff"/><use xlink:href="#c" x="107.367" y="121.068" fill="#00f"/><path d="M86.09 131.855l.29 29.352M86.38 161.207l23.913 17.02M62.8 178.69l23.58-17.483M69.273 182.492l18.864-13.988M110.293 178.227L101.5 206.23M116.004 183.094L108.97 205.5M138.945 171.84l-28.652 6.387M101.5 206.23l-14.68.145" stroke-width="1.2" stroke="#000" stroke-miterlimit="10" fill="none"/><path d="M86.82 206.375l-14.675.145" stroke-width="1.2" stroke="#00f" stroke-miterlimit="10" fill="none"/><path d="M101.5 206.23l19.852 21.622" stroke-width="1.2" stroke="#000" stroke-miterlimit="10" fill="none"/><path d="M72.145 206.52l-4.672-13.915" stroke-width="1.2" stroke="#00f" stroke-miterlimit="10" fill="none"/><path d="M67.473 192.605L62.8 178.69" stroke-width="1.2" stroke="#000" stroke-miterlimit="10" fill="none"/><path d="M63.145 199.52h18v14h-18zm0 0" fill="#fff"/><g fill="#00f"><use xlink:href="#c" x="63.145" y="210.658"/><use xlink:href="#d" x="72.121" y="210.658"/></g><path d="M121.352 227.852l28.652-6.387M122.715 220.47l22.922-5.107M150.004 221.465l8.797-28.004M158.8 193.46l-19.855-21.62M151.727 195.97l-15.883-17.294" stroke-width="1.2" stroke="#000" stroke-miterlimit="10" fill="none"/><path d="M136.352 72.648l12.78 7.215" stroke-width="1.2" stroke="#00f" stroke-miterlimit="10" fill="none"/><path d="M149.133 79.863l12.785 7.21" stroke-width="1.2" stroke="#000" stroke-miterlimit="10" fill="none"/><path d="M127.352 65.648h18v14h-18zm0 0" fill="#fff"/><g fill="#00f"><use xlink:href="#c" x="127.352" y="76.787"/><use xlink:href="#d" x="136.328" y="76.787"/></g><path d="M161.918 87.074l.285 29.356M187.19 72.148L161.92 87.074M162.203 116.43l25.567 14.425M187.77 130.855l12.636-7.464" stroke-width="1.2" stroke="#000" stroke-miterlimit="10" fill="none"/><path d="M200.406 123.39l12.637-7.46M213.043 115.93l-.14-14.676" stroke-width="1.2" stroke="#00f" stroke-miterlimit="10" fill="none"/><path d="M212.902 101.254l-.144-14.68" stroke-width="1.2" stroke="#000" stroke-miterlimit="10" fill="none"/><path d="M213.043 115.93l12.785 7.21" stroke-width="1.2" stroke="#00f" stroke-miterlimit="10" fill="none"/><path d="M225.828 123.14l12.78 7.215" stroke-width="1.2" stroke="#000" stroke-miterlimit="10" fill="none"/><path d="M209.043 108.93h9v14h-9zm0 0" fill="#fff"/><use xlink:href="#c" x="209.043" y="120.068" fill="#00f"/><path d="M212.758 86.574L187.19 72.148M240.363 133.328l12.64-7.465" stroke-width="1.2" stroke="#000" stroke-miterlimit="10" fill="none"/><path d="M253.004 125.863l12.637-7.46" stroke-width="1.2" stroke="#f00" stroke-miterlimit="10" fill="none"/><path d="M236.852 127.383l12.64-7.465" stroke-width="1.2" stroke="#000" stroke-miterlimit="10" fill="none"/><path d="M249.492 119.918l12.637-7.465" stroke-width="1.2" stroke="#f00" stroke-miterlimit="10" fill="none"/><path d="M238.61 130.355l.144 14.676" stroke-width="1.2" stroke="#000" stroke-miterlimit="10" fill="none"/><path d="M238.754 145.03l.144 14.677" stroke-width="1.2" stroke="#00f" stroke-miterlimit="10" fill="none"/><path d="M258.883 108.43h10v14h-10zm0 0" fill="#fff"/><use xlink:href="#e" x="258.883" y="119.568" fill="#f00"/><path d="M238.898 159.707l12.782 7.215" stroke-width="1.2" stroke="#00f" stroke-miterlimit="10" fill="none"/><path d="M251.68 166.922l12.78 7.21" stroke-width="1.2" stroke="#000" stroke-miterlimit="10" fill="none"/><path d="M229.898 152.707h18v14h-18zm0 0" fill="#fff"/><g fill="#00f"><use xlink:href="#c" x="229.898" y="163.846"/><use xlink:href="#d" x="238.875" y="163.846"/></g><path d="M264.46 174.133l.29 29.35" stroke-width="1.2" stroke="#000" stroke-miterlimit="10" fill="none"/></g></svg>
